X: 6
T: Bonnie Charlie
M: C
Q: 1/4=160
L: 1/8
K: F
A,2 | "Dm" D2 DE F2 FG | ABGA F2 (3GAB | A2 D2 D3 F | "C" EFGE C2 FE |
"Dm" D2 DE F2 FG | ABGA F2 (3GAB | A2 D2 "Am" FEDC | "Dm" D4 D2 :|
A2 | "Dm" dedc A2 A2 | dedc A3 f | "C" efge c2 c2 | efgf c2 fg |
"F" a2 fa "C" g2 eg | "Dm" f2 df "C" fedc | "Dm" d3 e "Am" fedc | "Dm" A2 d2 d3 A ||
"Dm" dedc A2 A2 | f2 f2 "Am" A3 B | "Gm" BAGF GFED | "C" EFGE C2 FG |
"F" A2 FA "C" c2 Ac | "Dm" defg "C" fedc | "Dm" dcBA "Am" AGFE | "Dm" D4 D2 |]

